X:1
T:Title
%%score { 1 | 2 }
L:1/8
Q:1/4=110
M:4/4
K:G
V:1 treble nm="Grand Piano"
V:2 treble 
V:1
 d2 e2 d2 B2 | G2 B2 A2 [B,DG]2 | [G,CE]2 [G,CG]2 [B,D]2 [B,DG]2 | [DGB]2 [Gd]2 [Fd]4 | %4
w: Robert~Lowry * * *||||
 d2 e2 d2 B2 | G2 B2 A2 G2 | E2 G2 D2 [B,DG]2 | [DGB]2 [CDA]2 [B,DG]4 | %8
w: ||||
 [B,^DB]2 [B,DF]2 [B,EG]2 [G,E]2 | [^DF]2 [DB]2 G2 E2 | B2 B2 B2 [Dd]2 | A2 c2 B4 | d2 e2 d2 B2 | %13
w: |||||
 G2 B2 A2 G2 | E2 G2 D2 [B,DG]2 | [DGB]2 [CDA]2 [B,DG]4 |] %16
w: |||
V:2
 [G,B,G]2 [G,CG]2 [G,B,G]2 [G,DG]2 | [G,B,D]2[K:bass] [G,D]2 [D,CD]2 G,,2 | C,2 E,2 G,2 G,,2 | %3
 G,2 [G,B,]2 [D,A,]4 | [G,B,G]2 [G,CG]2 [G,B,G]2 [G,DG]2 | %5
 [G,B,D]2[K:bass] [G,D]2 [D,F,C]2 [E,G,B,]2 | [C,G,C]2 [E,G,C]2 [G,B,]2 G,,2 | D,2 D,2 G,4 | %8
 B,,2 B,,2 E,2 E,2 | [B,,B,]2 [B,,B,]2 [E,B,E]2 [E,G,]2 | [E,G,D]2 [F,A,^D]2 [G,=D]2 [B,,G,]2 | %11
 [D,F,D]2 [D,A,D]2[K:treble] [G,D]4 | [G,B,G]2 [G,CG]2 [G,B,G]2 [G,DG]2 | %13
 [G,B,D]2 [G,D]2 [D,F,C]2 [E,G,B,]2 | [C,G,C]2 [E,G,C]2 [G,B,]2 G,,2 | D,2 D,2 G,,4 |] %16

